X:2856
T:Polonäs
T:ur Kumlins notsamling (nr 161)
B:Kumlins notsamling, nr 161
B:http://www.smus.se/earkiv/fmk/browselarge.php?lang=sw&katalogid=Ma+4&bildnr=00036
O:Närke
R:Slängpolska
Z:Nils Liberg
M:3/4
L:1/16
K:Gm
d2^f2 g2b2 a2g2 | ^f2af d8 | (ed).c.B (dc).B.A (cB).A.G | (BA).G.^F G4 G,4 ::
B2A2 G2A2 B2c2 | d2=e4< f4^f2 | g4 g2b2 a2g2 | ^f2af d8 |
d2^f2 g2b2 a2g2 | ^f2af d8 | (ed).c.B (dc).B.A (cB).A.G | (BA).G.^F G4 G,4 :| 
(:musicend:)
(:music:)
